X:268
T:Green Man,The. (p)1687.PLFD.268
M:6/4
L:1/4
Q:3/4=75
S:Playford, Dancing Master,7th Ed,1st Supp,1687.
O:England
H:1687.
Z:Chris Partington
K:F
a/b/|a>gfgab|a3e2a/g/|f>edefd|^c3A2=c|
B>AGAde|^cAe/f/g>fe|fdaf2e|e3-e2A/B/|
c>dc d/c/B/A/G/F/|G>ABA2d/e/|f>ef g/f/e/d/c|f3a2f/g/|
a>bagec'|f>gfeca|b/a/gaef^c|d3-d2:|

